!!!OTL: 593. Wuensche.
!!!ODT: 1839
!!!ARE: Europa, Mitteleuropa, Deutschland, Hessen, Odenwald
!!!SCT: E0593
!!!TXL: @@DE
!!!YEM: Copyright 1995, estate of Helmut Schaffrath.
**kern	**text
*ICvox	*
*M3/8	*
*k[f#c#g#]	*
*A:	*
!LO:TX:a:t=Mäßig langsam.	!
!LO:TX:a:t=Aus dem Odenwald, 1839.	!
{8e	Ach,
=1	=1
8.a	wenn
16b	doch
8cc#	mein
=2	=2
8.b	Schätʒchen
16cc#	.
8dd	ein
=3	=3
8ee	Ro-
8ee	-ſen-
8dd	-ſtock
=4	=4
4cc#}	wär,
{16ee	ei
16ff#	ſo
=5	=5
8ee	ſtellt
8cc#	ich'n
16eeL	vor's
16ff#J	.
=6	=6
16eeL	Fen-
16ddJ	.
8b}	-ſter,
{16ee	ei
16ff#	ſo
=7	=7
8ee	ſtellt
8cc#	ich'n
16eeL	vors
16ff#J	.
=8	=8
16eeL	Fen-
16ddJ	.
8b}	-ſter,
{8dd	daß
=9	=9
8ee	all
8cc#	die
8b/	Leut
=10	=10
4a}	ſäh'n.
==	==
!!!AGN: Liebes - Lied
!!!ONB: ESAC (Essen Associative Code) Database: ERK1
!!!AMT: simple triple
!!!AIN: vox
!!!EED: Helmut Schaffrath
!!!EEV: 1.0
!!!GTL: Liebeslieder [Neuere (aus dem 18. bis 19. Jahrh.) - Liebeslust]
!!!URL-scan: https://rosdok.uni-rostock.de/mcrviewer/recordIdentifier/rosdok_ppn745177662/iview2/phys_0418.iview2?x=-128.77276441889308&y=1872.8076250315644&scale=0.5870222003877485&rotation=0&layout=singlePageLayout
!!!ENC: Anna Maria Matuszewska
!!!EEV: 2024/11/12
*-	*-
